X: 141096
T: Night at the Fair
S: "Johnny O'Leary of Sliabh Luachra" (#28)
Z: B.Black
L: 1/8
M: 6/8
R: jig
K: G
A|B2A GED|EGF G/F/GA|BGG dGG|ABA AGA|
B2A GED|EGF G2A|B/d/eB dBA|1 BGG G2 :|2\
BGG G3 ||
efg eaa|egg ged|B2A dBG|ABA ABd|
efg eaa|egg ged|BeB dBA|BGG G3 :|
